src/Icon/svgs/quote.svg

<svg width="24" height="24" viewBox="0 0 24 24" fill="none" xmlns="http://www.w3.org/2000/svg">
<path fill-rule="evenodd" clip-rule="evenodd" d="M0.898932 14.5256C0.899414 14.5832 0.899989 14.6518 0.899989 14.7369C0.899989 17.75 3.23857 20 6 20C8.76142 20 11 17.7615 11 15C11 12.2386 8.76142 10 6 10C5.75607 10 5.47266 10.0273 5.28324 10.1C5.70604 8.24262 6.51798 6.31697 8 4H5.5C4.33325 5.3983 3.38722 6.83082 2.56777 8.28071C1.61297 9.97008 0.899995 12 0.899995 14.3141C0.897638 14.3711 0.898169 14.4344 0.898932 14.5256ZM12.8989 14.5256C12.8994 14.5832 12.9 14.6518 12.9 14.7369C12.9 17.75 15.2386 20 18 20C20.7614 20 23 17.7615 23 15C23 12.2386 20.7614 10 18 10C17.7561 10 17.4727 10.0273 17.2832 10.1C17.706 8.24262 18.518 6.31697 20 4H17.5C16.3332 5.3983 15.3872 6.83082 14.5678 8.28071C13.613 9.97008 12.9 12 12.9 14.3141C12.8976 14.3711 12.8982 14.4344 12.8989 14.5256Z" fill="#1B1C1D"/>
</svg>

<svg xmlns="http://www.w3.org/2000/svg" width="24" height="24" fill="none"  xmlns:v="https://vecta.io/nano"><path fill-rule="evenodd" d="M.899 14.526l.001.211C.9 17.75 3.239 20 6 20a5 5 0 1 0 0-10c-.244 0-.527.027-.717.1C5.706 8.243 6.518 6.317 8 4H5.5C4.333 5.398 3.387 6.831 2.568 8.281 1.613 9.97.9 12 .9 14.314l-.001.212zm12 0l.001.211C12.9 17.75 15.239 20 18 20a5 5 0 1 0 0-10c-.244 0-.527.027-.717.1C17.706 8.243 18.518 6.317 20 4h-2.5c-1.167 1.398-2.113 2.831-2.932 4.281C13.613 9.97 12.9 12 12.9 14.314l-.001.212z" fill="#1b1c1d"/></svg>
